packages/axiom-materials/src/icon_svgs/youtube.svg

<svg height="16" viewBox="0 0 16 16" width="16" xmlns="http://www.w3.org/2000/svg"><g fill="none" fill-rule="evenodd" transform="translate(0 2)"><path d="m15.6656364 1.76027273c-.184-.69290909-.7260909-1.23854546-1.4145455-1.42372727-1.2477273-.33654546-6.2510909-.33654546-6.2510909-.33654546s-5.00336364 0-6.25109091.33654546c-.68836364.18518181-1.23054545.73081818-1.41454545 1.42372727-.33436364 1.25581818-.33436364 3.87609091-.33436364 3.87609091s0 2.62018181.33436364 3.87618181c.184.69281815.72618181 1.23845455 1.41454545 1.42372725 1.24772727.3364546 6.25109091.3364546 6.25109091.3364546s5.0033636 0 6.2510909-.3364546c.6884546-.1852727 1.2305455-.7309091 1.4145455-1.42372725.3343636-1.256.3343636-3.87618181.3343636-3.87618181s0-2.62027273-.3343636-3.87609091" fill="#de0000"/><path d="m6.36363636 8.01536364 4.18181814-2.37890909-4.18181814-2.37909091z" fill="#fffffe"/></g></svg>

<?xml version="1.0" encoding="UTF-8"?>
<svg width="16px" height="16px" viewBox="0 0 16 16" version="1.1" xmlns="http://www.w3.org/2000/svg" xmlns:xlink="http://www.w3.org/1999/xlink">
    <g id="Symbols/Social-Icons/Colour/YouTube" stroke="none" stroke-width="1" fill="none" fill-rule="evenodd">
        <g id="Symbols---Social-Icons---Colour---YouTube" transform="translate(0.000000, 2.000000)">
            <path d="M15.6656364,1.76027273 C15.4816364,1.06736364 14.9395455,0.521727273 14.2510909,0.336545455 C13.0033636,-8.8817842e-15 8,-8.8817842e-15 8,-8.8817842e-15 C8,-8.8817842e-15 2.99663636,-8.8817842e-15 1.74890909,0.336545455 C1.06054545,0.521727273 0.518363636,1.06736364 0.334363636,1.76027273 C0,3.01609091 0,5.63636364 0,5.63636364 C0,5.63636364 0,8.25654545 0.334363636,9.51254545 C0.518363636,10.2053636 1.06054545,10.751 1.74890909,10.9362727 C2.99663636,11.2727273 8,11.2727273 8,11.2727273 C8,11.2727273 13.0033636,11.2727273 14.2510909,10.9362727 C14.9395455,10.751 15.4816364,10.2053636 15.6656364,9.51254545 C16,8.25654545 16,5.63636364 16,5.63636364 C16,5.63636364 16,3.01609091 15.6656364,1.76027273" id="Fill-1" fill="#DE0000"></path>
            <polyline id="Fill-4" fill="#FFFFFE" points="6.36363636 8.01536364 10.5454545 5.63645455 6.36363636 3.25736364 6.36363636 8.01536364"></polyline>
        </g>
    </g>
</svg>
